CSETWebApi/CSETWeb_Api/CSETWeb_ApiCore/Diagram/src/main/webapp/img/lib/mscae/Data_Catalog.svg

<svg xmlns="http://www.w3.org/2000/svg" width="47" height="50.2"><path d="M35.7 35.7h1.6V0H6C5 .1 2.9 2.6 2.9 2.9v34.5c0 1 .8 1.9 1.9 1.9h28.5v-.6l2.4-3z" fill="#0072c6"/><path d="M7.4 1.6c-.9 0-1.2.1-2 .8-1.7 1.5.4 1.5 1.2 1.5h26.7v34.8l2.4-3.1v-34H7.4z" fill="#e5e5e5"/><g fill="#a0a1a2"><path d="M33.3 3.9v34.8l2.4-3V1.6z" opacity=".5"/><path d="M7.4 21.2c0 .8-.6 1.4-1.4 1.4H1.4C.6 22.6 0 22 0 21.2s.6-1.4 1.4-1.4H6c.8-.1 1.4.6 1.4 1.4zm0-10.3c0 .8-.6 1.4-1.4 1.4H1.4c-.8 0-1.4-.6-1.4-1.4s.6-1.4 1.4-1.4H6c.8 0 1.4.7 1.4 1.4zm0 20.5c0 .8-.6 1.4-1.4 1.4H1.4c-.8 0-1.4-.6-1.4-1.4S.6 30 1.4 30H6c.8 0 1.4.6 1.4 1.4z"/></g><path d="M22.6 22.2v23.5c0 2.4 5.5 4.4 12.2 4.4v-28H22.6z" fill="#3999c6"/><path d="M34.6 50.2h.2c6.7 0 12.2-2 12.2-4.4V22.2H34.6v28z" fill="#59b4d9"/><path d="M47 22.2c0 2.4-5.5 4.4-12.2 4.4s-12.2-2-12.2-4.4 5.5-4.4 12.2-4.4 12.2 2 12.2 4.4" fill="#fff"/><path d="M44.5 21.9c0 1.6-4.4 2.9-9.7 2.9s-9.7-1.3-9.7-2.9 4.4-2.9 9.7-2.9 9.7 1.3 9.7 2.9" fill="#7fba00"/><path d="M42.5 23.7c1.3-.5 2-1.1 2-1.8 0-1.6-4.4-2.9-9.7-2.9-5.4 0-9.7 1.3-9.7 2.9 0 .7.8 1.3 2 1.8 1.8-.7 4.6-1.1 7.7-1.1s5.9.4 7.7 1.1" fill="#b8d432"/></svg>

<?xml version="1.0" encoding="UTF-8" standalone="no"?>
<svg
   xmlns:dc="http://purl.org/dc/elements/1.1/"
   xmlns:cc="http://creativecommons.org/ns#"
   xmlns:rdf="http://www.w3.org/1999/02/22-rdf-syntax-ns#"
   xmlns:svg="http://www.w3.org/2000/svg"
   xmlns="http://www.w3.org/2000/svg"
   xmlns:sodipodi="http://sodipodi.sourceforge.net/DTD/sodipodi-0.dtd"
   xmlns:inkscape="http://www.inkscape.org/namespaces/inkscape"
   version="1.1"
   id="Layer_1"
   x="0px"
   y="0px"
   width="47"
   height="50.200001"
   viewBox="0 0 47 50.200001"
   enable-background="new 0 0 50 50"
   xml:space="preserve"
   inkscape:version="0.91 r13725"
   sodipodi:docname="Azure Data Catalog_COLOR.svg"><metadata
     id="metadata29"><rdf:RDF><cc:Work
         rdf:about=""><dc:format>image/svg+xml</dc:format><dc:type
           rdf:resource="http://purl.org/dc/dcmitype/StillImage" /><dc:title></dc:title></cc:Work></rdf:RDF></metadata><defs
     id="defs27" /><sodipodi:namedview
     pagecolor="#ffffff"
     bordercolor="#666666"
     borderopacity="1"
     objecttolerance="10"
     gridtolerance="10"
     guidetolerance="10"
     inkscape:pageopacity="0"
     inkscape:pageshadow="2"
     inkscape:window-width="1920"
     inkscape:window-height="1018"
     id="namedview25"
     showgrid="false"
     fit-margin-top="0"
     fit-margin-left="0"
     fit-margin-right="0"
     fit-margin-bottom="0"
     inkscape:zoom="10.363697"
     inkscape:cx="15.75052"
     inkscape:cy="16.924068"
     inkscape:window-x="-8"
     inkscape:window-y="-8"
     inkscape:window-maximized="1"
     inkscape:current-layer="Layer_1" /><path
     d="M 35.7,35.7 37.3,35.7 37.3,0 8.1,0 6,0 C 5,0.1 2.9,2.6 2.9,2.9 2.9,3 2.9,37.4 2.9,37.4 2.9,38.4 3.7,39.3 4.8,39.3 L 33.3,39.3 33.3,38.7 35.7,35.7 Z"
     id="path3"
     inkscape:connector-curvature="0"
     style="fill:#0072c6" /><path
     d="M 7.4,1.6 C 6.5,1.6 6.2,1.7 5.4,2.4 3.7,3.9 5.8,3.9 6.6,3.9 L 33.3,3.9 33.3,38.7 35.7,35.6 35.7,1.6 7.4,1.6 Z"
     id="path5"
     inkscape:connector-curvature="0"
     style="fill:#e5e5e5" /><polygon
     enable-background="new    "
     points="34.3,3.9 34.3,38.7 36.7,35.7 36.7,1.6 "
     id="polygon7"
     style="opacity:0.5;fill:#a0a1a2"
     transform="translate(-1,0)" /><path
     d="M 7.4,21.2 C 7.4,22 6.8,22.6 6,22.6 L 1.4,22.6 C 0.6,22.6 0,22 0,21.2 L 0,21.2 C 0,20.4 0.6,19.8 1.4,19.8 L 6,19.8 C 6.8,19.7 7.4,20.4 7.4,21.2 L 7.4,21.2 Z"
     id="path9"
     inkscape:connector-curvature="0"
     style="fill:#a0a1a2" /><path
     d="M 7.4,10.9 C 7.4,11.7 6.8,12.3 6,12.3 L 1.4,12.3 C 0.6,12.3 0,11.7 0,10.9 L 0,10.9 C 0,10.1 0.6,9.5 1.4,9.5 L 6,9.5 C 6.8,9.5 7.4,10.2 7.4,10.9 L 7.4,10.9 Z"
     id="path11"
     inkscape:connector-curvature="0"
     style="fill:#a0a1a2" /><path
     d="M 7.4,31.4 C 7.4,32.2 6.8,32.8 6,32.8 L 1.4,32.8 C 0.6,32.8 0,32.2 0,31.4 L 0,31.4 C 0,30.6 0.6,30 1.4,30 L 6,30 C 6.8,30 7.4,30.6 7.4,31.4 L 7.4,31.4 Z"
     id="path13"
     inkscape:connector-curvature="0"
     style="fill:#a0a1a2" /><path
     d="M 22.6,22.2 22.6,45.7 C 22.6,48.1 28.1,50.1 34.8,50.1 L 34.8,22.1 22.6,22.1 Z"
     id="path15"
     inkscape:connector-curvature="0"
     style="fill:#3999c6" /><path
     d="M 34.6,50.2 34.8,50.2 C 41.5,50.2 47,48.2 47,45.8 L 47,22.2 34.6,22.2 34.6,50.2 Z"
     id="path17"
     inkscape:connector-curvature="0"
     style="fill:#59b4d9" /><path
     d="M 47,22.2 C 47,24.6 41.5,26.6 34.8,26.6 28.1,26.6 22.6,24.6 22.6,22.2 22.6,19.8 28.1,17.8 34.8,17.8 41.5,17.8 47,19.8 47,22.2"
     id="path19"
     inkscape:connector-curvature="0"
     style="fill:#ffffff" /><path
     d="M 44.5,21.9 C 44.5,23.5 40.1,24.8 34.8,24.8 29.5,24.8 25.1,23.5 25.1,21.9 25.1,20.3 29.5,19 34.8,19 40.1,19 44.5,20.3 44.5,21.9"
     id="path21"
     inkscape:connector-curvature="0"
     style="fill:#7fba00" /><path
     d="M 42.5,23.7 C 43.8,23.2 44.5,22.6 44.5,21.9 44.5,20.3 40.1,19 34.8,19 29.4,19 25.1,20.3 25.1,21.9 25.1,22.6 25.9,23.2 27.1,23.7 28.9,23 31.7,22.6 34.8,22.6 37.9,22.6 40.7,23 42.5,23.7"
     id="path23"
     inkscape:connector-curvature="0"
     style="fill:#b8d432" /></svg>
